dist/icons/coin.svg

<svg width="28" height="28" fill="none" xmlns="http://www.w3.org/2000/svg"><path d="M19.25 0v1.75H8.75V0h10.5Zm-14 3.5V1.75h3.5V3.5h-3.5ZM3.5 5.25V3.5h1.75v1.75H3.5Zm-1.75 3.5v-3.5H3.5v3.5H1.75Zm0 10.5H0V8.75h1.75v10.5Zm1.75 3.5H1.75v-3.5H3.5v3.5Zm1.75 1.75H3.5v-1.75h1.75v1.75Zm3.5 1.75h-3.5V24.5h3.5v1.75Zm10.5 0V28H8.75v-1.75h10.5Zm3.5-1.75v1.75h-3.5V24.5h3.5Zm1.75-1.75v1.75h-1.75v-1.75h1.75Zm1.75-3.5v3.5H24.5v-3.5h1.75Zm0-10.5H28v10.5h-1.75V8.75Zm-1.75-3.5h1.75v3.5H24.5v-3.5ZM22.75 3.5h1.75v1.75h-1.75V3.5Zm0 0V1.75h-3.5V3.5h3.5Zm-14 15.75h1.75V21h1.75v1.75H14V21h3.5v-1.75h1.75v-3.5H17.5V14H14v-1.75h-3.5v-3.5h7v1.75h1.75V8.75H17.5V7h-1.75V5.25H14V7h-3.5v1.75H8.75v3.5h1.75V14H14v1.75h3.5v3.5h-7V17.5H8.75v1.75Z" fill="#000"/></svg>

<svg width="28" height="28" viewBox="0 0 28 28" fill="none" xmlns="http://www.w3.org/2000/svg">
<path d="M19.25 0V1.75H8.75V0H19.25Z" fill="black"/>
<path d="M5.25 3.5V1.75H8.75V3.5H5.25Z" fill="black"/>
<path d="M3.5 5.25V3.5H5.25V5.25H3.5Z" fill="black"/>
<path d="M1.75 8.75V5.25H3.5V8.75H1.75Z" fill="black"/>
<path d="M1.75 19.25H0V8.75H1.75V19.25Z" fill="black"/>
<path d="M3.5 22.75H1.75V19.25H3.5V22.75Z" fill="black"/>
<path d="M5.25 24.5H3.5V22.75H5.25V24.5Z" fill="black"/>
<path d="M8.75 26.25H5.25V24.5H8.75V26.25Z" fill="black"/>
<path d="M19.25 26.25V28H8.75V26.25H19.25Z" fill="black"/>
<path d="M22.75 24.5V26.25H19.25V24.5H22.75Z" fill="black"/>
<path d="M24.5 22.75V24.5H22.75V22.75H24.5Z" fill="black"/>
<path d="M26.25 19.25V22.75H24.5V19.25H26.25Z" fill="black"/>
<path d="M26.25 8.75H28V19.25H26.25V8.75Z" fill="black"/>
<path d="M24.5 5.25H26.25V8.75H24.5V5.25Z" fill="black"/>
<path d="M22.75 3.5H24.5V5.25H22.75V3.5Z" fill="black"/>
<path d="M22.75 3.5V1.75H19.25V3.5H22.75Z" fill="black"/>
<path d="M8.75 19.25H10.5V21H12.25V22.75H14V21H17.5V19.25H19.25V15.75H17.5V14H14V12.25H10.5V8.75H17.5V10.5H19.25V8.75H17.5V7H15.75V5.25H14V7H10.5V8.75H8.75V12.25H10.5V14H14V15.75H17.5V19.25H10.5V17.5H8.75V19.25Z" fill="black"/>
</svg>
